X:1
T:Ground Bass Exercise Templates
T:Ground Bass Exercise Templates
T:Purcell: Here the deities approve 
T:Ground Bass Exercise Templates
T:CC0 1.0 Universal (Public Domain). Mark Gotham and FourScoreAndMore.org waive all rights to this document.
Z:CC0 1.0 Universal (Public Domain). Mark Gotham and FourScoreAndMore.org waive all rights to this document.
L:1/8
M:4/4
K:G
V:1 bass nm="Piano"
V:1
 E,,E,G,B, ^D,F,B,=D, | ^C,B,A,=C, B,,G,A,,F, | G,,E,F,,^D, E,G,,A,,B,, | E,,E,G,B, ^D,F,B,=D, | %4
 ^C,B,A,=C, B,,G,A,,F, | G,,E,F,,^D, E,G,,A,,B,, | E,,E,G,B, ^D,F,B,=D, | ^C,B,A,=C, B,,G,A,,F, | %8
 G,,E,F,,^D, E,G,,A,,B,, | E,,E,G,B, ^D,F,B,=D, | ^C,B,A,=C, B,,G,A,,F, | G,,E,F,,^D, E,G,,A,,B,, | %12
 E,,E,G,B, ^D,F,B,=D, | ^C,B,A,=C, B,,G,A,,F, | G,,E,F,,^D, E,G,,A,,B,, |] %15

